symbols/web/remove_road/materialsymbolsoutlined/remove_road_wght700grad200_48px.svg

<svg xmlns="http://www.w3.org/2000/svg" height="48" width="48"><path d="M35.85 26.9V7h4.55v19.9ZM4.9 41.1V7h4.55v34.1Zm15.45-25.75V7h4.6v8.35Zm0 12.8v-8.3h4.6v8.3Zm0 12.95v-8.45h4.6v8.45Zm11.05.35 3.6-3.6-3.6-3.65 3.25-3.2 3.6 3.55L41.8 31l3.3 3.2-3.6 3.6 3.55 3.6-3.25 3.3-3.55-3.65-3.65 3.65Z"/></svg>

<svg xmlns="http://www.w3.org/2000/svg" height="48" width="48"><path d="M35.85 26.9V7H40.4V26.9ZM4.9 41.1V7H9.45V41.1ZM20.35 15.35V7H24.95V15.35ZM20.35 28.15V19.85H24.95V28.15ZM20.35 41.1V32.65H24.95V41.1ZM31.4 41.45 35 37.85 31.4 34.2 34.65 31 38.25 34.55 41.8 31 45.1 34.2 41.5 37.8 45.05 41.4 41.8 44.7 38.25 41.05 34.6 44.7Z"/></svg>
